X: 1
T:The Foxhunters Jig  "http://freespace.virgin.net/michael.clarke2/index
M:9/8
L:1/8
Q:80
C:
S:Jig
K:HP
|: {g}c3/2{d}c/2{e}c{g}c/2{d}A3/2{d}c{Gdc}d2{e}B|
{g}c3/2{d}c/2{e}c{g}c/2{d}A3/2{d}c{gBd}B2{e}A|
{g}c3/2{d}c/2{e}c{g}c/2{d}A3/2{d}c{Gdc}d2f|  !
{gef}e3/2c/2{d}A{g}A3/2B/2c{gBd}B2{e}A:| |]
{g}f3{gfg}f2d{gcd}c3/2d/2e|
{gfg}f2B{g}B/2{d}G3/2{d}B{Gdc}d2{e}B|  !
{gef}e3{A}e2d{gcd}c3/2d/2e|
{gef}e3/2c/2{d}A{g}A3/2B/2c{gBd}B2{e}A| |
{g}f3{gfg}f2d{gcd}c3/2d/2e|  !
{gfg}f2B{g}B/2{d}G3/2{d}B{Gdc}d2{e}B|
{gef}e3{A}e2d{gcd}c3/2d/2e|
{ag}a2A{g}A3/2B/2c{gBd}B2{e}A|] |:  !
{gcd}cac{gcd}cac{Gdc}d2B|
{gcd}cac{gcd}cac{gBd}B2{e}A|
{gcd}cac{gcd}cac{Gdc}d2f|  !
{gef}e3/2c/2{d}A{g}A3/2B/2c{gBd}B2{e}A:| |:
{g}f2{GdG}f{gfg}f3/2e/2d{g}c{GdG}e|
{g}f3/2B/2{G}B{g}B/2{d}G3/2{d}B{Gdc}d2{e}B|  !
{g}e{GdG}e{gef}e2d{g}c2{GdG}e|
{gef}e3/2c/2{d}A{g}A3/2B/2c{gBd}B2{e}A:|
